X:111
T: Csillagtalan sötét éjjel
M: 4/4
L: 1/4
K: Bb
gfed | gfe g/e/ | d<d d2 | 
gfed | edc f/d/ | c<B B2 | 
Bcdf | edc/B/G | 
edcB/F/ | G<G G2 | 

